svg/regular/bx-joystick-button.svg

<svg xmlns="http://www.w3.org/2000/svg" width="24" height="24"><path d="M20 7h-3V4c0-1.103-.897-2-2-2H9c-1.103 0-2 .897-2 2v3H4c-1.103 0-2 .897-2 2v6c0 1.103.897 2 2 2h3v3c0 1.103.897 2 2 2h6c1.103 0 2-.897 2-2v-3h3c1.103 0 2-.897 2-2V9c0-1.103-.897-2-2-2zm0 8h-5v4h.001v1H9v-5H4V9h5V4h6v5h5v6z"/><path d="M8 14v-4l-3 2zm8 0 3-2-3-2zm-6-6h4l-2-3zm2 11 2-3h-4z"/><circle cx="12" cy="12" r="2"/></svg>

<svg xmlns="http://www.w3.org/2000/svg" width="24" height="24" viewBox="0 0 24 24"><path d="M20,7h-1h-2V5V4c0-1.103-0.897-2-2-2H9C7.897,2,7,2.897,7,4v1v2H5H4C2.897,7,2,7.897,2,9v6c0,1.103,0.897,2,2,2h1h2v2v1 c0,1.103,0.897,2,2,2h6c1.103,0,2-0.897,2-2v-1v-2h2h1c1.103,0,2-0.897,2-2V9C22,7.897,21.103,7,20,7z M20,15h-1h-3h-1v4h0.001v1H9 v-1v-3v-1H8H5H4V9h1h3h1V8V5V4h6v1v3v1h1h3h1V15z"/><path d="M8 14L8 10 5 12zM16 14L19 12 16 10zM10 8L14 8 12 5zM12 19L14 16 10 16z"/><circle cx="12" cy="12" r="2"/></svg>
